X: 1
T: Bill Cheatham
R: C|
Z: 2020 John Chambers <jc:trillian.mit.edu>
S: https://www.facebook.com/groups/Fiddletuneoftheday/ 2020-10-23
S: https://www.facebook.com/groups/Fiddletuneoftheday/photos/
M: C|
L: 1/8
K: A
GF |:\
"A"E2c2 c4 | cBAc BAFE |\
[1,3 "D"F2d2 d4 | fgaf "(E)"ecBA :|\
[2,4 "D"dcde fgaf | "E"ecBc "A"A2 :|
|: cd |\
"A"ecea "D"fdfa | "E"gefg "A"a2eg | "A"agae "D"fgaf |\
[1,3 "A"ecBA "E"B2 :|[2,4 "E"ecBc "A"A2 :|
